ion/logo-codepen.svg

<svg viewBox="0 0 512 512" xmlns="http://www.w3.org/2000/svg"><g><path d="M241.24 303.94c-15.32-10.36-30.74-20.57-46.06-30.93 -2-1.38-3.43-1.48-5.5 0l-38.88 26.12C182 319.9 244 361.32 244 361.32v-53.79c0-1.22-1.55-2.78-2.76-3.59Z"/><path d="M195.09 240.67q23.19-15.24 46.11-30.86v-.001c1.63-1.32 2.64-3.25 2.8-5.34v-51.7s-62 41.12-93.26 61.94c13.7 9.16 26.67 17.91 39.78 26.44 1.02.66 3.4.28 4.57-.48Z"/><path d="M269.84 209.35q23.71 16.07 47.63 31.82v0c1.2.59 2.62.59 3.83-.001l39.76-26.47L268 152.47v53.35 -.001c.07 1.38.74 2.66 1.84 3.52Z"/><path d="M258.11 230.37h0c-1.52-.7-3.28-.64-4.74.17 -4.82 3-9.47 6.2-14.17 9.35 -8.25 5.53-25.35 17-25.35 17l38.84 25.86v0c1.91 1.16 4.3 1.21 6.26.11l39-26s-34.07-22.66-39.84-26.49Z"/><path d="M141 237.12l0 39.61 29.62-19.84L141 237.12Z"/><path d="M256 32C132.29 32 32 132.29 32 256c0 123.71 100.29 224 224 224s224-100.29 224-224 -100.29-224-224-224Zm139 265c0 5.78-2.65 9.86-7.51 13.09q-61.71 41-123.29 82.19c-5.85 3.92-11.17 3.75-17-.14q-61.17-41-122.63-81.67c-5.11-3.39-7.59-7.56-7.59-13.73V217c0-6.14 2.52-10.34 7.62-13.72 40.91-27.13 81.94-54.36 122.73-81.68 5.82-3.89 11.09-4 16.94-.09q61.54 41.21 123.26 82.19c4.68 3.11 7.45 6.95 7.45 12.66Z"/><path d="M316.25 273.23q-22.59 15.34-45.39 30.34c-2.41 1.58-2.89 3.31-2.86 6.19v51.34l93-62 -38.53-25.88c-2.3-1.61-3.89-1.57-6.22.01Z"/><path d="M370 276.68l0-39.62 -29.59 19.87L370 276.68Z"/></g></svg>

<svg xmlns="http://www.w3.org/2000/svg" width="512" height="512" viewBox="0 0 512 512"><path d="M241.24,303.94c-15.32-10.36-30.74-20.57-46.06-30.93-2-1.38-3.43-1.48-5.5,0L150.8,299.13C182,319.9,244,361.32,244,361.32V307.53C244,306.31,242.45,304.75,241.24,303.94Z"/><path d="M195.09,240.67q23.19-15.24,46.11-30.86a7.54,7.54,0,0,0,2.8-5.34v-51.7s-62,41.12-93.26,61.94c13.7,9.16,26.67,17.91,39.78,26.44C191.54,241.81,193.92,241.43,195.09,240.67Z"/><path d="M269.84,209.35q23.71,16.07,47.63,31.82a4.3,4.3,0,0,0,3.83,0l39.76-26.47L268,152.48v53.35A4.79,4.79,0,0,0,269.84,209.35Z"/><path d="M258.11,230.37a5.27,5.27,0,0,0-4.74.17c-4.82,3-9.47,6.2-14.17,9.35-8.25,5.53-25.35,17-25.35,17l38.84,25.86a6.18,6.18,0,0,0,6.26.11l39-26S263.88,234.2,258.11,230.37Z"/><polygon points="141 237.12 141 276.73 170.62 256.89 141 237.12"/><path d="M256,32C132.29,32,32,132.29,32,256S132.29,480,256,480,480,379.71,480,256,379.71,32,256,32ZM395,297c0,5.78-2.65,9.86-7.51,13.09q-61.71,41-123.29,82.19c-5.85,3.92-11.17,3.75-17-.14q-61.17-41-122.63-81.67c-5.11-3.39-7.59-7.56-7.59-13.73V217c0-6.14,2.52-10.34,7.62-13.72,40.91-27.13,81.94-54.36,122.73-81.68,5.82-3.89,11.09-4,16.94-.09q61.54,41.21,123.26,82.19c4.68,3.11,7.45,6.95,7.45,12.66Z"/><path d="M316.25,273.23q-22.59,15.34-45.39,30.34c-2.41,1.58-2.89,3.31-2.86,6.19V361.1l93-62-38.53-25.88C320.17,271.61,318.58,271.65,316.25,273.23Z"/><polygon points="370 276.68 370 237.06 340.41 256.93 370 276.68"/></svg>
